X: 2901
T: Land o' Cakes
P: Lady Kinloch of Gilmerton's Strathspey
C:Petrie's 4th Coll.
R:Strathspey (8x32)
B:RSCDS 29-1
Z:Anselm Lingnau <anselm@strathspey.org>
M:C
L:1/8
K:D
"D"D<D F>A d>c d>e|f>e f>b a>f e>d|\
"G"B<d "D"A<d "Em"G<d "D"F<d|"Em"E<e e>d "A"c<e"A7"cA
"D"D<D F>A d>c d>e|f>e f>b a<f e>d|\
"G"B<d "D"A<d "Em"G<d "D"F<d|"Em"[BG]>e "A"[dA]>c "D"d2 Dz||
"Bm"f2 fb f<dc>B|"A"e2 ea e<cB>A|\
"E"^G<e A<e B<e B<e|"Bm"d<f "E7"e>^G "A7"A>=G F>E|
"D"D<D F>A d>c d>f|"Em"e>d e>f "A"e>c B>A|\
"G"B<d "D"A<d "Em"G<d "D"F<d|"Em"B<e"A"d>c "D"d2 Dz|]
%%center Book29/2901-Land_o_Cakes-AL.abc

%%sep 2 1 500
%%sep 1 1 500

